X: 918
T: Gül Açar Bülbül Öter Yaz Geçer
C: Cevdet Çağla
O: Turkey
F: http://compmusic.upf.edu/node/140
N: karcigar--sarki--curcuna--gul_acar--cevdet_cagla
N: makam= karcigar
N: form= sarki
N: usul= curcuna = 10/8
M: 10/8
L: 1/16
K: C _2/4B _3/4e ^3/4f 
Q: 1/4=192
%%MIDI tuningsystem comma53
A4 F2G2 A2B2 c2d2 e2f2  | g2a2 _b2a2 g2f2 a2g4z2  | \
w:  ARANAĞME  |   | 
g4 c'2_b2 a2g2 =f2_1/4e2 ^d2e2  | 
w:   | 
g2f2 e2d2 c2d2 B2c4z2  | c2B2 c2d2 e2f2 g2a4z2  | \
w:   |   | 
a2c'2 _b2a2 g2f2 e2d4z2  | 
w:   | 
g2f2 e2d4f2 e2d2 c4  | e2d2 c2B2 A2B2 G2A4z2  | \
w:   |   | 
d4 z2c2 B2A2 B2A4z2  | 
w:  Gül  a *  çar   | 
B6c4d4e2 d2c2  | d4 f2e2 d2c2 B2c4z2  | \
w:  bül bül  ö ter   |  yaz  *  ge *  çer    | 
d4 z2g4f2 a2g6  | a6c'4_b2 a2g4f2  | 
w:  Gül  a çar   |  bül bül  ö *  ter   | 
=e6f4g2 f2g6  | g4 c'2_b2 a2b2 a2g2 f2=e2  | \
w:  yaz  ge çer    |  SAZ  | 
f2g2 a_ba2 g2g2 f2g4z2  | 
w:   | 
g4 a2g2 =f2_1/4e2 ^d2e4z2  | c4 _1/4e3^d e2B4=d3^cd2  | \
w:  Yâr  *  gü *  ler   |  gö nül  *  *  ah tan   | 
A4 c2B2 A2G2 F2G6  | 
w:  vaz *  ge *  çer    | 
d4 c2B2 A2B2 c2d2 e2f2  | g4 g2g4g2 f2e2 d2c2  | \
w:  Yâr  *  gü *  ler   |  *  gö nül  ah *  tan   | 
c4 B2B2 A2A8-A2  | 
w:  vaz *  ge *  çer    | 
A4 g2f2 =e2f2 g2a4g2  | a2b2 c'4 b2b2 a2a4z2  | \
w:  SAZ  |   | 
g4 f2g4a4z6  | 
w:  Dil  *  su sar   | 
g6a4_b4a2 g2f2  | f4 e2e2 d2d2 c2B3AG2  | \
w:  fasl_ ı  aş kı   |  saz  *  ge *  çer    | 
c4 B2c4d4z6  | g6a4_b2 a2g4f2  | 
w:  Dil  *  su sar   |  fasl_ ı  aş *  kı   | 
=e6f4g8-g2  | g4 c'2_b2 a2b2 a2g2 f2=e2  | \
w:  saz  ge çer    |  SAZ  | 
f2g2 a_ba2 g2g2 f2g4z2  | 
w:   | 
g4 a2g2 =f2_1/4e2 ^d2e4z2  | c4 _1/4e3^d e2B4=d3^cd2  | \
w:  Yâr  *  gü *  ler   |  gö nül  *  *  ah tan   | 
A4 c2B2 A2G2 F2G6  | 
w:  vaz *  ge *  çer    | 
d4 c2B2 A2B2 c2d2 e2f2  | g4 g2g4g2 f2e2 d2c2  | \
w:  Yâr  *  gü *  ler   |  *  gö nül  ah *  tan   | 
c4 B2B2 A2A8-A2  | 
w:  vaz *  ge *  çer    | 
|


